X: 34941
T: Rocks Of Targil
R: jig
M: 6/8
K: Amajor
c/B/|A2E FGA|EFG A3|Ace cef|ecA B2c/B/|
A2E FGA|EFG A2B|cea cdB|A3A2:|
|:c/d/|e2a c2a|f<da e3|Ace cef|ecA B2c/d/|
e2a c2a|f<da e2d|cef ecB|A3A2:|

